X:1
T:Raigmore  "69"
M:C|
L:1/8
Q:80
C:Alasdair Reese
S:Hornpipe
K:HP
|: {gAGAG}Ae"gste"e{g}d/2B/2 | \
{g}e/2g/2{a}B/2d/2{g}e/2B/2{g}d/2B/2 | \
{gAGAG}Ae"gste"e{g}d/2B/2 |
{g}e/2g/2{a}d/2B/2{g}A/2{d}A/2{e}A/2e/2 | \
{gAGAG}Ae"gste"e{g}d/2B/2 | \
{g}e/2g/2{a}B/2d/2{gef}e{ag}a |
e/2g/2{a}d/2e/2{A}e/2B/2{g}d/2B/2 | \
{g}A{gAGAG}A{g}Ae :: \
{gAGAG}Aa{g}ae/2g/2 |
a/2g/2{a}eae/2g/2{a}d/2B/2 | \
{gAGAG}Aa{ef}e{g}d/2B/2 | \
{g}e/2g/2{a}d/2B/2{g}A/2{d}A/2{e}A/2e/2 |
{gAGAG}Aa{g}ae/2g/2 | \
a/2g/2{g}e/2a/2{gef}e{ag}a | \
e/2g/2{a}d/2e/2{A}e/2B/2{g}d/2B/2 |
{g}A{gAGAG}A{g}Ae :: \
{gAGAG}Ae{g}A/2e/2{g}e/2{A}e/2 | \
{g}A/2e/2{g}d/2B/2{g}e/2g/2{a}d/2B/2 |
{gAGAG}Ae{g}A/2e/2{g}e/2{A}e/2 | \
{g}G/2d/2{g}B/2{d}G/2{g}B/2e/2{g}d/2B/2 | \
{gAGAG}Ae{g}A/2e/2{g}e/2{A}e/2 |
{g}A/2e/2{g}d/2B/2{gef}e{ag}a | \
e/2g/2{a}d/2e/2{A}e/2B/2{g}d/2B/2 | \
{g}A{gAGAG}A|1 {g}Ae:|2
{g}Ae/2g/2 | |: \
{ag}ae{g}e/2{A}e/2{g}e/2g/2 | \
a/2e/2{A}e/2a/2e/2g/2{a}g/2e/2 |
{ag}ae{g}e/2{A}e/2{g}e/2g/2 | \
d/2g/2{a}g/2d/2{g}e/2g/2{a}d/2B/2|1
{ag}ae{g}e/2{A}e/2{g}e/2g/2 |
a/2e/2{A}e/2a/2{gef}e{ag}a | \
e/2g/2{a}d/2e/2{A}e/2B/2{g}d/2B/2 | \
{g}A{gAGAG}A{g}A{g}e/2g/2:|2
{gef}eA{gAGAG}A{gef}e | \
{g}A/2e/2{A}e/2d/2{gef}e{ag}a | \
e/2g/2{a}d/2e/2{A}e/2B/2{g}d/2B/2 |
{g}A{gAGAG}A{g}A2 :|
